src/assets/DaggerLeftIcon.svg

<?xml version="1.0" encoding="UTF-8" standalone="no"?>
<!-- Created with Inkscape (http://www.inkscape.org/) -->

<svg
   width="180"
   height="55"
   viewBox="0 0 47.624999 14.552083"
   version="1.1"
   id="svg42439"
   xmlns="http://www.w3.org/2000/svg"
   xmlns:svg="http://www.w3.org/2000/svg">
  <defs
     id="defs42436" />
  <g
     id="layer1">
    <path
       style="fill:#83ffcd;fill-opacity:1;stroke:none;stroke-width:0.122654px;stroke-linecap:butt;stroke-linejoin:miter;stroke-opacity:1"
       d="M 47.416456,7.62201 43.7462,7.0038325 18.124683,4.8513728 16.890575,6.7743119 15.778063,5.7956935 14.91177,0.61659019 13.537266,6.0093491 0.20854366,7.030315 13.354745,8.5056925 14.676818,13.935493 15.882674,8.8938537 16.881137,8.0426538 18.017303,9.8160304 43.746424,8.253287 Z"
       id="path41843" />
  </g>
</svg>

<?xml version="1.0" encoding="UTF-8"?>
<!-- Created with Inkscape (http://www.inkscape.org/) -->
<svg width="180" height="55" version="1.1" viewBox="0 0 47.625 14.552" xmlns="http://www.w3.org/2000/svg">
 <path d="m47.416 7.622-3.6703-0.61818-25.622-2.1525-1.2341 1.9229-1.1125-0.97862-0.86629-5.1791-1.3745 5.3928-13.329 1.021 13.146 1.4754 1.3221 5.4298 1.2059-5.0416 0.99846-0.8512 1.1362 1.7734 25.729-1.5627z" fill="#83ffcd"/>
</svg>
